X:1
T:James Gibb editions
T:Psalm 59 (Becker) - Schütz
%%score [ ( 1 2 ) ( 3 4 ) ]
L:1/8
Q:1/4=100
M:2/2
K:C
V:1 treble nm="Soprano Alto"
V:2 treble 
V:3 bass nm="Tenor Bass"
V:4 bass 
V:1
"^Cornelius Becker\n(1561-1604)""^Psalm 59, SWV 156""^Heinrich Schütz\n(1585-1672)" G4 | %1
w: |
 E2 D2 C2 G2 | A2 B2 c4 | c4 B2 c2 | d2 B2 A4 | G4 :|[M:2/2] G4 A2 c2 | B2 G2 (AG) F2 | E4 E4 | %9
w: |||||ohn mei- ne|Schuld und Mis\- * se-|tat, lauf'n|
 G2 A2 B2 G2 | (AB) c2 B4 | d4 e2 d2 | c2 B2 (A2 d2) | c8 |] %14
w: sie zu- sam- men,|hal\- * * Rat,|ich habs ja|nicht ver- schul\- *|det.|
V:2
 C4 | C2 B,2 G,2 G,2 | C2 G2 G4 | G4 G2 G2 | ^F2 G (G2 F/E/ !courtesy!^F2) | G4 :| %6
w: ~Ach|treu- er Gott, sieh|doch da- rein,|laß dein mein|Jam- mer dau\- * * *|ern,|
w: die|Star- ken so ge-|wal- tig sein,|auf mei- ne|See- le lau\- * * *|ern,|
[M:2/2] E4 F2 G2 | G2 D2 (FE) D2 | ^C4 =C4 | E2 E2 G2 E2 | E2 (E^F) G4 | G4 G2 G2 | E2 E2 (C2 G2) | %13
w: ||||* ten * *|||
w: |||||||
 G8 |] %14
w: |
w: |
V:3
 E,4 | G,2 G,2 E,2 B,2 | A,2 D2 C4 | E4 D2 G,2 | A,2 D2 D4 | D4 :|[M:2/2] C4 C2 E2 | %7
 D2 B,2 C2 A,2 | A,4 G,4 | C2 C2 E2 B,2 | %10
"^3. Erwache doch, Herr Zebaoth, \nmein Gott, tu mir begegnen, \nwach auf, such heim, Israels Gott, \nall die so gar verwegen \nFrevel begehn und Übeltat, \nerzeig ihr keinem keine Gnad, \ndie heidnisch an mir handeln.\n\n6. Sicher bin ich vor ihrer Macht, \nwenn ich zu dir mich halte, \ndu bist mein Schutz, hast mich in acht, \nich laß dein Güte walten, \nreichlich erzeigest du mir Gnad, \ndaß ich kann sehn nach deinem Rat \nmit Ruh auf meine Feinde." (CB,) A,2 D4 | %11
 B,4"^11. Ich aber will von deiner Macht \naus Grund meins Herzens singen, \ndes Morgens rühmen mit Andacht \ndein Gut vor allen Dingen, \ndu bist mein Schutz und starker Gott, \nzu dir flieh ich in meiner Not \nund tröst mich deiner Gnade.\n\n12. Dir, mein Herr, will lobsingen ich, \ndu bist mein Schutz in Nöten, \ndu hast mich so gewaltiglich \naus aller G'fahr erettet. \nDu, mein Gott, bist allein mein Schutz, \nmein Friedschild, Zuversicht und Trutz, \nallzeit mein gnäd'ger Herre." C2 B,2 | %12
 A,2 G,2 (A, C2 B,) | C8 |] %14
V:4
 C,4 | C,2 G,,2 C,2 E,2 | F,2 G,2 C,4 | C,4 G,2 E,2 | D,2 G,,2 D,4 | G,,4 :|[M:2/2] C,4 F,2 C,2 | %7
 G,2 G,2 (F,C,) D,2 | A,,4 C,4 | C,2 A,,2 E,2 E,2 | (A,G,) A,2 G,4 | G,4 C,2 G,2 | %12
 A,2 E,2 (F,A, G,2) | C,8 |] %14

